!!!OTL: EIN TAEUBCHEN FLOG VOM HIMMELSZELT
!!!ARE: Europa, Mitteleuropa, Deutschland
!!!SCT: F0304
!!!YEM: Copyright 1995, estate of Helmut Schaffrath.
**kern
*ICvox
*Ivox
*M2/4
*k[b-]
*F:
{8g
=1
4a
4cc
=2
4f
4b-
=3
4a
4g
=4
4g
8r}
{8b-
=5
4a
4cc
=6
4f
4b-
=7
4a
4g
=8
4.a
8r}
=9
{8r
8g
8a
8bn
=10
8dd
8cc
4r}
=11
{4dd
4cc
=12
4dd
4cc
=13
2ee
=14
4ff
4r}
=15
{4ee
8dd
8r
=16
4cc
8b-
8r
=17
2cc
=18
4.f}
==
!!!AGN: Jugend - Lied, Belehrung, Moral
!!!ONB: ESAC (Essen Associative Code) Database: FINK
!!!AMT: simple duple
!!!AIN: vox
!!!EED: Helmut Schaffrath
!!!EEV: 1.0
*-
